X:22
M:3/4
L:1/8
Q:1/4=100
K:G
(G>A)|B2d2 (e/d/)(B/d/)|e2E2G>A|B2d2(eB)|(A2G2)G>A|B2d2(e/d/)(B/d/)|
e2E2G>A|B2 g>e (d<B)|A2[B,2G2]||(3GBd|g2a2b>a|g2B2(de)|(ga)e2(dB)|

